X: 2
T: The Green Gates
R: reel
M: 4/4
L: 1/8
K: Gmaj
|:GBdg (3efe dB|~g3d eged|eA~A2 EA~A2|(3Bcd ed gedB|gBfB (3efe dB|~g3d eged|cded egdc|(3Bcd AF G4:||:dg~g2 bg~g2|dg~g2 (3efg dB|eA~A2 EA~A2|(3Bcd ed gedB|dg~g2 bg~g2|dg~g2 bged|cded egdc|(3Bcd AF G4:|


Tune 1722	Setting 15148

